brandFactory_export/2.Regular/Libra_2regular.svg

<?xml version="1.0" encoding="UTF-8"?>
<svg width="24px" height="24px" viewBox="0 0 24 24" version="1.1" xmlns="http://www.w3.org/2000/svg" xmlns:xlink="http://www.w3.org/1999/xlink">
    <title>2.Regular/Libra_2regular</title>
    <g id="Symbols" stroke="none" stroke-width="1" fill="none" fill-rule="evenodd">
        <g id="2.Regular/Libra_2regular" fill="#5CB615" fill-rule="nonzero">
            <path d="M11.8084034,22.1747899 C18.6857143,22.1747899 22.1747899,18.6890756 22.1747899,11.8151261 C22.1747899,4.93781513 18.6890756,1.4487395 11.8084034,1.4487395 C4.93445378,1.4487395 1.4487395,4.93781513 1.4487395,11.8151261 C1.4487395,18.6890756 4.93445378,22.1747899 11.8084034,22.1747899 Z M11.8084034,0 C19.5361345,0 23.6235294,4.08403361 23.6235294,11.8151261 C23.6235294,19.5394958 19.5394958,23.6235294 11.8084034,23.6235294 C4.08067227,23.6235294 0,19.5394958 0,11.8151261 C0,4.08403361 4.08403361,0 11.8084034,0 Z M15.2201681,17.2638655 C15.4857143,17.2638655 15.7042017,17.4823529 15.7042017,17.7478992 L15.7042017,18.2655462 C15.7042017,18.5344538 15.4890756,18.7495798 15.2201681,18.7495798 L7.81848739,18.7495798 C7.63697479,18.7495798 7.46890756,18.6487395 7.38823529,18.487395 C7.31428571,18.3428571 7.27731092,18.1747899 7.27731092,17.9798319 C7.27731092,17.4453782 7.55630252,17.1731092 8.11428571,16.6386555 C9.15966387,15.6302521 9.36134454,14.9142857 9.36134454,14.0201681 C9.36134454,13.4420168 9.27058824,12.8638655 9.06890756,12.1882353 L7.87226891,12.1882353 C7.60336134,12.1882353 7.38823529,11.9731092 7.38823529,11.7042017 L7.38823529,11.3781513 C7.38823529,11.1226891 7.58655462,10.9142857 7.83865546,10.8941176 L8.63193277,10.8403361 C8.43697479,10.1882353 8.26890756,9.37478992 8.26890756,8.52436975 C8.26890756,5.93277311 9.81848739,4.44369748 12.5176471,4.44369748 C13.2033613,4.44369748 14.312605,4.54117647 15.1865546,4.81008403 C15.3882353,4.87394958 15.5260504,5.06218487 15.5260504,5.27394958 L15.5260504,5.71428571 C15.5260504,5.85882353 15.4621849,5.99663866 15.3512605,6.08739496 C15.2403361,6.17815126 15.0890756,6.21512605 14.9546218,6.19159664 C14.1344538,6.03697479 13.3378151,5.94957983 12.7092437,5.94957983 C10.7428571,5.94957983 9.82521008,6.76302521 9.82521008,8.51092437 C9.82521008,9.28067227 10.010084,10.0537815 10.2151261,10.7428571 L13.1865546,10.7428571 C13.4554622,10.7428571 13.6705882,10.9613445 13.6705882,11.2268908 L13.6705882,11.7042017 C13.6705882,11.9731092 13.4554622,12.1882353 13.1865546,12.1882353 L10.6554622,12.1882353 C10.8134454,12.8201681 10.8941176,13.4386555 10.8941176,14.0369748 C10.8941176,15.3109244 10.5378151,16.2184874 9.55630252,17.2638655 L15.2201681,17.2638655 L15.2201681,17.2638655 Z" id="Libra_2regular"></path>
        </g>
    </g>
</svg>

<svg width="24" height="24" viewBox="0 0 24 24" xmlns="http://www.w3.org/2000/svg"><path d="M11.808 22.175c6.878 0 10.367-3.486 10.367-10.36 0-6.877-3.486-10.366-10.367-10.366-6.874 0-10.36 3.489-10.36 10.366 0 6.874 3.486 10.36 10.36 10.36zm0-22.175c7.728 0 11.816 4.084 11.816 11.815 0 7.724-4.085 11.809-11.816 11.809C4.081 23.624 0 19.539 0 11.815 0 4.084 4.084 0 11.808 0zm3.412 17.264c.266 0 .484.218.484.484v.518a.482.482 0 01-.484.484H7.818a.48.48 0 01-.43-.263 1.097 1.097 0 01-.11-.507c0-.535.278-.807.836-1.341 1.046-1.009 1.247-1.725 1.247-2.619 0-.578-.09-1.156-.292-1.832H7.872a.482.482 0 01-.484-.484v-.326c0-.255.199-.464.45-.484l.794-.054c-.195-.652-.363-1.465-.363-2.316 0-2.591 1.55-4.08 4.249-4.08.685 0 1.795.097 2.669.366.201.064.34.252.34.464v.44a.482.482 0 01-.572.478c-.82-.155-1.617-.242-2.246-.242-1.966 0-2.884.813-2.884 2.56 0 .77.185 1.544.39 2.233h2.972c.268 0 .484.218.484.484v.477a.482.482 0 01-.484.484h-2.532c.158.632.24 1.25.24 1.849 0 1.274-.357 2.181-1.339 3.227h5.664z" fill="#5CB615" fill-rule="nonzero"/></svg>
